X:1
T: News From Tripoli
N:
C:
S:
A:
O:
R:
M:3/2
K:G
I:speed 224
%W: A
% voice 1 (1 lines, 26 notes)
K:G
M:3/2
L:1/16
G2 A2 B4 |G4 d4 |B4 G4 |B2 c2 d4 |B4 e4 |d8 |d4 g8 |B4 A4 |G4 c4 |E4 A2 |B2 A2 G2 |F4 D4 |
%W:
% voice 1 (1 lines, 25 notes)
G2 A2 B4 |G4 d4 |B4 G4 |B2 c2 d4 |B4 e4 |d8 |d4 g8 |f4 g2 |f2 e2 d2 |^c4 d4 |e4 c4 |d8 |
%W: B
% voice 1 (1 lines, 29 notes)
d2 e2 f4 |d4 f4 |d8 |d2 e2 =f4 |d4 f4 |e8 |c2 d2 e4 |c4 e4 |d4 c2 |B2 A4 |A2 A2 c2 |B2 A2 G2 |A4 D4 |
%W:
% voice 1 (1 lines, 34 notes)
F2 G2 A4 |A2 F2 D4 |c8 |B2 c2 d4 |d2 B2 G4 |e8 |d2 e2 f4 |f2 d2 e2 |f2 g2 f2 |e2 d2 c2 |B2 A2 G2 |F2 G2 A2 |F2 G8 |
